X:58
T:Black’s Dance,The. RHu.058
S:R.Hughes MS,1823,Whitchurch,Shrops.
A:Whitchurch, Shropshire
Z:Neil Brookes 2006
M:2/4
L:1/8
Q:1/4=100
R:Country Dance
K:G
D|GG AA|d/e/d/c/ B/c/B/A/|GG AA|d/e/d/c/ B::!
d|gg gf/e/|dd dc/B/|cA d/e/d/c/|BGG2:|

